X: 52
M: 2/4
L: 1/16
K: G
|:\
|:\
d4 (g2d2) | Te4 d4 | A2B2c2B2 | AGAB A2A2 |
d4 (g2d2) | Te4 d4 | A2B2 {d/}c2(Bc) | {B}A4 A4 |\


